proprietary/assets/icons/op-kantoor/map-met-loep.svg

<svg enable-background="new 0 0 64 64" height="64" viewBox="0 0 64 64" width="64" xmlns="http://www.w3.org/2000/svg"><path d="m0 0h64v64h-64z" fill="none"/><path d="m35.7 34.7c5-5 13.2-5.1 18.3-.3v-18.5c0-1-.8-1.8-1.8-1.8h-26.3v-1.2c0-1-.8-1.8-1.8-1.8h-14.1c-1 0-1.8.8-1.8 1.8v4.1s35.9 2.3 37 2.5c.8.1.7.5.6.6h-42.6c-1.2 0-2 1.1-1.8 2.2l6.4 27.3c.3 1.1 1.1 1.4 2.2 1.4h23.8c-3.2-5.1-2.6-11.9 1.9-16.3z"/><path d="m62.4 57.3-8.2-7.3c2.7-4.3 2.3-10-1.5-13.7-4.3-4.3-11.3-4.3-15.6 0s-4.3 11.3 0 15.6c3.9 3.6 9.6 4.1 13.9 1.3l7.4 8.2c1 1.1 2.7.9 3.8-.2 1.2-1.2 1.4-2.8.2-3.9zm-12.4-8.3c-2.8 2.8-7.3 2.8-10 0-2.8-2.8-2.8-7.3 0-10 2.8-2.8 7.3-2.8 10 0 2.8 2.8 2.8 7.2 0 10z"/></svg>

<?xml version="1.0" encoding="utf-8"?>
<!-- Generator: Adobe Illustrator 21.0.2, SVG Export Plug-In . SVG Version: 6.00 Build 0)  -->
<!DOCTYPE svg PUBLIC "-//W3C//DTD SVG 1.1//EN" "http://www.w3.org/Graphics/SVG/1.1/DTD/svg11.dtd">
<svg version="1.1" xmlns="http://www.w3.org/2000/svg" xmlns:xlink="http://www.w3.org/1999/xlink" x="0px" y="0px" width="64px"
	 height="64px" viewBox="0 0 64 64" style="enable-background:new 0 0 64 64;" xml:space="preserve">
<style type="text/css">
	.st0{fill:none;}
</style>
<g id="_x36_4px_Box">
	<rect class="st0" width="64" height="64"/>
</g>
<g id="Icon">
	<g>
		<path d="M35.7,34.7c5-5,13.2-5.1,18.3-0.3V15.9c0-1-0.8-1.8-1.8-1.8H25.9v-1.2c0-1-0.8-1.8-1.8-1.8H10c-1,0-1.8,0.8-1.8,1.8
			c0,2,0,2.2,0,4.1c0,0,35.9,2.3,37,2.5c0.8,0.1,0.7,0.5,0.6,0.6H3.2c-1.2,0-2,1.1-1.8,2.2l6.4,27.3C8.1,50.7,8.9,51,10,51
			c4.9,0,4.7,0,23.8,0C30.6,45.9,31.2,39.1,35.7,34.7z"/>
		<path d="M62.4,57.3L54.2,50c2.7-4.3,2.3-10-1.5-13.7c-4.3-4.3-11.3-4.3-15.6,0c-4.3,4.3-4.3,11.3,0,15.6C41,55.5,46.7,56,51,53.2
			l7.4,8.2c1,1.1,2.7,0.9,3.8-0.2C63.4,60,63.6,58.4,62.4,57.3z M50,49c-2.8,2.8-7.3,2.8-10,0c-2.8-2.8-2.8-7.3,0-10
			c2.8-2.8,7.3-2.8,10,0C52.8,41.8,52.8,46.2,50,49z"/>
	</g>
</g>
</svg>
